X:835
T:Stalker Castle
S:The Piper's Assistant
Z:Nigel Gatherer
M:3/4
L:1/4
K:D
d a f | a c B/A/ | d a f/e/ | d/c/ f B |
d a f | e/d/ c a/c/ | B/d/c/B/ A/B/ | c/e/ f B ||
d c/B/ d | c/B/ c B/A/ | d c/B/ c | B/A/ f B |
d c/B/ d | e/d/ c a/c/ | B c/B/A/B/ | c/e/ f B ||
